X: 5
T:Belle qui tiens va vie - Tenor
M:C|
L:1/2
B:Thoinot Arbeau : Orchesographie, 1589
Z:Steve Mansfield February 2001
K:Gdor
B,2 | B,A, | B,C | D2 |
DB, | G,D | CC | D2 |
B,2 | B,A, | B,C | D2 |
DB, | G,D | CC | D2 |
D2 | CD | B,C | A,2 |
B,2 | G,B, | A,A, | G,2 |
D2 | CD | B,C | A,2 |
B,2 | G,B, | A,A, | G,2 |
<end>
<start>
